libs/shared/ui-themes/src/lib/images/networks/fantom_icon.svg

<?xml version="1.0" encoding="utf-8"?>
<!-- Generator: Adobe Illustrator 25.4.3, SVG Export Plug-In . SVG Version: 6.00 Build 0)  -->
<svg version="1.0" id="katman_2" xmlns="http://www.w3.org/2000/svg" xmlns:xlink="http://www.w3.org/1999/xlink" x="0px" y="0px"
	 viewBox="0 0 32 32" enable-background="new 0 0 32 32" xml:space="preserve">
<g id="Layer_2_00000154400230558107109240000014131617325213514938_">
	<g id="Layer_1-2">
		<circle fill="#13B5EC" cx="16" cy="16" r="16"/>
		<g>
			<path fill-rule="evenodd" clip-rule="evenodd" fill="#FFFFFF" d="M17.2,12.9l3.6-2.1V15L17.2,12.9z M20.8,21.9L16,24.7l-4.8-2.8
				V17l4.8,2.8l4.8-2.8L20.8,21.9z M11.2,10.8l3.6,2.1L11.2,15V10.8z M16.6,13.9l3.6,2.1l-3.6,2.1V13.9z M15.4,18.1L11.8,16l3.6-2.1
				L15.4,18.1z M20.2,9.8L16,12.2l-4.2-2.4L16,7.3L20.2,9.8z M10,9.4v13.1l6,3.4l6-3.4V9.4L16,6L10,9.4z"/>
		</g>
	</g>
</g>
</svg>

<?xml version="1.0" encoding="utf-8"?>
<svg viewBox="0 0 20 20" width="20" height="20" xmlns="http://www.w3.org/2000/svg">
  <defs>
    <mask id="mask" x="10" y="6" width="93.1" height="20" maskUnits="userSpaceOnUse">
      <g id="a">
        <path class="cls-1" d="M10,6h93.1V26H10Z"/>
      </g>
    </mask>
    <style>.cls-1{fill:#fff;fill-rule:evenodd;}.cls-2{fill:#13b5ec;}.cls-3{mask:url(#mask);}</style>
  </defs>
  <g id="Layer_2" data-name="Layer 2" style="" transform="matrix(0.623923, 0, 0, 0.623923, 0, 0)">
    <g id="Layer_1-2" data-name="Layer 1">
      <circle class="cls-2" cx="16" cy="16" r="16"/>
      <g class="cls-3">
        <path class="cls-1" d="M17.2,12.9l3.6-2.1V15Zm3.6,9L16,24.7l-4.8-2.8V17L16,19.8,20.8,17ZM11.2,10.8l3.6,2.1L11.2,15Zm5.4,3.1L20.2,16l-3.6,2.1Zm-1.2,4.2L11.8,16l3.6-2.1Zm4.8-8.3L16,12.2,11.8,9.8,16,7.3ZM10,9.4V22.5l6,3.4,6-3.4V9.4L16,6Z"/>
      </g>
    </g>
  </g>
</svg>
